X: 43129
T: Wink And She'll Follow You
R: slip jig
M: 9/8
K: Dmajor
||A|:DED dcd BAF|DED dcd B2A|DED dcd BAF|BED EFA B2A:|
|:dcd ded cBA|ded def g2e|dcd ded cBA|BED EFA B2A:|
|:dDD dcd BAF|dDD dcd B2A|dDD dcd BAF|BED EFA B2A:|

